X:131
T:Let bucks a hunting go - Westaway
%%VWML:SBG-1-2-711-0
F:http://www.vwml.org/record/SBG/1/2/711
Z:Original Sibelius transcriptions by M. & S. Graebe
M:6/8
I:linebreak $
K:Bb
V:1 treble nm="P1"
V:1
 F | B2 B B3/2 A/ G | F2 E DEF | G2 c F>GA | (B3 B2) :| B | d2 d d>cd | (f3 d2) d |$ c2 c c>Bc | %9
w: |||||And|I sing Tally * *|ho _ And|I'll sing Tally _ _|
 (d3 B3) | B2 B B>AG | F2 E D>EF | G2 c F>GA |"^Repeat in chorus" (B3 B2) x | %14
w: ho! _|All my fancy _ _|is with Nancy _ &|I'll sing Tally _ _|ho. *|
T:Let bucks a hunting go - Hard
F:http://www.vwml.org/record/SBG/1/2/
Z:Original Sibelius transcriptions by M. & S. Graebe
M:6/8
I:linebreak $
K:Bb
V:1 treble nm="P1"
V:1
 F | B2 B BA G | F2 E D2 F | G2 c AGA | B3 B2 :| c | d2 d dcd | (f3 d2) c |$ c2 c cBc | (d3 B3) | %10
 B2 B BA G | F2 E D2 F | G2 c AGA |"^Repeat in chorus" (B3 B2) z | %14
T:Let bucks a hunting go - Shillson
F:http://www.vwml.org/record/SBG/1/2/
Z:Original Sibelius transcriptions by M. & S. Graebe
M:6/8
I:linebreak $
K:C
V:1 treble nm="P1"
V:1
 G | c2 c c>B A | G2 G G2 G | A2 d BA B | (c3 c2) G | A2 d BA B |$ (c3 c2) G | d2 f e2 c | %8
 BA B c/ c3/2 G | d2 f e2 c | BAB c3 (e/c/) |$ A2 A cB A | G2 E G G G | c2 c ed c | (g3 g2) e/c/ | %15
 A2 A A2 B | (c3 c2) x | %17
